X:1
T:Title
%%score { ( 1 4 ) | ( 2 3 ) }
L:1/8
Q:1/4=100
M:6/8
K:Eb
V:1 treble nm="Grand Piano"
V:4 treble 
V:2 bass 
V:3 bass 
V:1
 [GB]2 [Ac] [GB]2 [EG] | [GB]2 [Ac] [GB]3 | E2 E EFG | [EG]3 .[DF]3 | [GB]2 [Ac] [GB]2 [EG] | %5
w: Wm.~J.~Kirkpatrick * * *|||||
 [GB]2 [Ac] [GB]3 | E2 E EFG | [DF]3 .[B,E]3 | [DF]2 [DF] [DB]2 [DB] | =AGA [DB]3 | %10
w: |||||
 [DF]2 [DF] [DB]2 [DB] | cB=A [B,DB]3 | [B,GB]2 [Ad] [Ge]2 B |[M:15/16] GF/-F/E[DB]3/2- [DB]3 | %14
w: ||||
[M:3/4] E2 EE FG | [DF]3 .[B,E]3 | [DF]2 [DF] [DB]2 [DB] | =AG A [DB]3 | [DF]2 [DF] [DB]2 [DB] | %19
w: |||||
 cB =A [B,DB]3 | [B,GB]2 [Ad] [Ge]2 B |[M:15/16] GF/-F/E[DB]3/2- [DB]3 |[M:3/4] E2 EE F[B,EG] | %23
w: ||||
 [A,DF]3 .[G,B,E]3 |] %24
w: |
V:2
 [E,B,]2 [E,E] [E,E]2 [E,B,] | [E,E]2 [E,E] [E,E]3 | [E,G,B,]2 [E,G,B,] [E,B,]-[E,A,B,][E,B,E] | %3
 [B,,B,]3 .[B,,B,]3 | [E,B,]2 [E,E] [E,E]2 [E,B,] | [E,E]2 [E,E] [E,E]3 | %6
 [E,G,B,]2 [E,G,B,] [E,B,]-[E,A,B,][E,B,E] | [B,,A,]3 .[E,G,]3 | %8
 [B,,B,]2 [B,,B,] [B,,F,]2 [B,,F,] | F,F,[F,E] [B,,F,]3 | [B,,B,]2 [B,,B,] [B,,F,]2 [B,,B,] | %11
 [F,=A,][F,B,][F,CE] B,,3 | z z/[K:treble] c/[K:bass][E,B,] [E,B,]2 B, | %13
[M:15/16] G,F,/-F,/E,[B,,F,]3/2- [B,,F,]3 |[M:3/4] [E,G,B,]2 [E,G,B,][E,B,]- [E,A,B,][E,B,E] | %15
 [B,,A,]3 .[E,G,]3 | [B,,B,]2 [B,,B,] [B,,F,]2 [B,,F,] | F,F, [F,E] [B,,F,]3 | %18
 [B,,B,]2 [B,,B,] [B,,F,]2 [B,,B,] | [F,=A,][F,B,] [F,CE] B,,3 | %20
 z z/[K:treble] c/[K:bass] [E,B,] [E,B,]2 B, |[M:15/16] G,F,/-F,/E,[B,,F,]3/2- [B,,F,]3 | %22
[M:3/4] z2 z G, z2 | B,,3 .E,3 |] %24
V:3
 x6 | x6 | z3 .G,3 | x6 | x6 | x6 | z3 .G,3 | x6 | x6 | x6 | x6 | x6 | .E,3[K:treble][K:bass] z3 | %13
[M:15/16] x15/2 |[M:3/4] z2 z G, z2 | x6 | x6 | x6 | x6 | x6 | E,2[K:treble][K:bass] z2 z2 | %21
[M:15/16] x15/2 |[M:3/4] [E,G,B,]2 [E,G,B,][E,B,]- [E,A,B,]E, | x6 |] %24
V:4
 x6 | x6 | x6 | x6 | x6 | x6 | x6 | x6 | x6 | .E3 z3 | x6 | .E3 z3 | x6 |[M:15/16] x15/2 | %14
[M:3/4] x6 | x6 | x6 | E2 z2 z2 | x6 | E2 z2 z2 | x6 |[M:15/16] x15/2 |[M:3/4] x6 | x6 |] %24

